X: 2011
T: the BOG O' GIGHT
R: Strathspey.
%R: strathspey
B: James Kerr "Merry Melodies" v.2 p.4 #11
Z: 2016 John Chambers <jc:trillian.mit.edu>
M: C
L: 1/8
K: A
[|\
ve>vfue>uc vA>vc(A<E) | F>EF>A B/B/B (B>c) |\
e>fe>c A>c(A<E) | F>AE>C A,/A,/A, A,2 |\
ve>vfue>uc A>vc(A<E) |
F>EF>A B/B/B (B>c) |\
c<ef>ue vd>vcuB>uA | G>AB>c A/A/A A2 |]\
va>uba<e a>ba<e | f>ef>a b/b/b b2 |
a>ba<e f<ac<a | B>AB>c A/A/A A2 |\
va>uba<e a>ba<e | f>ef>a b/b/b b2 |\
a<ef<a e<fc<e | B>AB>c A/A/A A2 |]
